img/case-studies/research-app-dark.svg

<svg width="536" height="536" viewBox="0 0 536 536" fill="none" xmlns="http://www.w3.org/2000/svg">
<path d="M406.274 166.198L408.706 163.681L407.689 162.698H406.274V166.198ZM427.307 186.522L429.739 184.005L429.739 184.005L427.307 186.522ZM436.057 166.198V162.698H432.557V166.198H436.057ZM198.5 97C198.5 90.0964 204.096 84.5 211 84.5V77.5C200.23 77.5 191.5 86.2305 191.5 97H198.5ZM198.5 150.198V97H191.5V150.198H198.5ZM211 162.698C204.096 162.698 198.5 157.102 198.5 150.198H191.5C191.5 160.968 200.23 169.698 211 169.698V162.698ZM406.274 162.698H211V169.698H406.274V162.698ZM429.739 184.005L408.706 163.681L403.842 168.715L424.875 189.039L429.739 184.005ZM432.557 182.935C432.557 184.204 430.895 185.122 429.739 184.005L424.875 189.039C430.264 194.247 439.557 190.673 439.557 182.935H432.557ZM432.557 166.198V182.935H439.557V166.198H432.557ZM463.771 162.698H436.057V169.698H463.771V162.698ZM476.271 150.198C476.271 157.102 470.674 162.698 463.771 162.698V169.698C474.54 169.698 483.271 160.968 483.271 150.198H476.271ZM476.271 97V150.198H483.271V97H476.271ZM463.771 84.5C470.674 84.5 476.271 90.0965 476.271 97H483.271C483.271 86.2304 474.54 77.5 463.771 77.5V84.5ZM211 84.5H463.771V77.5H211V84.5Z" fill="#1B2020"/>
<path d="M129.496 315.198L127.064 312.681L128.082 311.698H129.496V315.198ZM108.463 335.522L106.031 333.005L106.031 333.005L108.463 335.522ZM99.7134 315.198V311.698H103.213V315.198H99.7134ZM337.271 246C337.271 239.096 331.674 233.5 324.771 233.5V226.5C335.54 226.5 344.271 235.23 344.271 246H337.271ZM337.271 299.198V246H344.271V299.198H337.271ZM324.77 311.698C331.674 311.698 337.271 306.102 337.271 299.198H344.271C344.271 309.968 335.54 318.698 324.77 318.698V311.698ZM129.496 311.698H324.77V318.698H129.496V311.698ZM106.031 333.005L127.064 312.681L131.928 317.715L110.895 338.039L106.031 333.005ZM103.213 331.935C103.213 333.205 104.875 334.122 106.031 333.005L110.895 338.039C105.506 343.247 96.2134 339.673 96.2134 331.935H103.213ZM103.213 315.198V331.935H96.2134V315.198H103.213ZM71.9998 311.698H99.7134V318.698H71.9998V311.698ZM59.4998 299.198C59.4998 306.102 65.0962 311.698 71.9998 311.698V318.698C61.2302 318.698 52.4998 309.968 52.4998 299.198H59.4998ZM59.4998 246V299.198H52.4998V246H59.4998ZM71.9998 233.5C65.0962 233.5 59.4998 239.096 59.4998 246H52.4998C52.4998 235.23 61.2302 226.5 71.9998 226.5V233.5ZM324.771 233.5H71.9998V226.5H324.771V233.5Z" fill="#1B2020"/>
<circle r="48.5326" transform="matrix(-1 0 0 1 105.033 411.033)" stroke="#1B2020" stroke-width="7"/>
<path d="M76.4985 446.18V440.942C76.4985 437.102 78.0237 433.42 80.7387 430.705C83.4536 427.99 87.1358 426.465 90.9753 426.465H119.929C123.768 426.465 127.451 427.99 130.166 430.705C132.881 433.42 134.406 437.102 134.406 440.942V446.18" stroke="#1B2020" stroke-width="7" stroke-linecap="round" stroke-linejoin="round"/>
<path d="M76.0005 445.715V440.477C76.0005 436.637 77.5257 432.955 80.2406 430.24C82.9555 427.525 86.6378 426 90.4773 426H119.431C123.27 426 126.953 427.525 129.668 430.24C132.382 432.955 133.908 436.637 133.908 440.477V445.715" fill="#1B2020"/>
<path d="M76.0005 445.715V440.477C76.0005 436.637 77.5257 432.955 80.2406 430.24C82.9555 427.525 86.6378 426 90.4773 426H119.431C123.27 426 126.953 427.525 129.668 430.24C132.382 432.955 133.908 436.637 133.908 440.477V445.715L131 451L118 456L105.5 458L93.5005 456L84.5005 452.5L76.0005 445.715Z" fill="#1B2020"/>
<path d="M76.0005 445.715V440.477C76.0005 436.637 77.5257 432.955 80.2406 430.24C82.9555 427.525 86.6378 426 90.4773 426H119.431C123.27 426 126.953 427.525 129.668 430.24C132.382 432.955 133.908 436.637 133.908 440.477V445.715" stroke="#1B2020" stroke-width="7" stroke-linecap="round" stroke-linejoin="round"/>
<path d="M76.0005 445.715V440.477C76.0005 436.637 77.5257 432.955 80.2406 430.24C82.9555 427.525 86.6378 426 90.4773 426H119.431C123.27 426 126.953 427.525 129.668 430.24C132.382 432.955 133.908 436.637 133.908 440.477V445.715L131 451L118 456L105.5 458L93.5005 456L84.5005 452.5L76.0005 445.715Z" stroke="#1B2020" stroke-width="7" stroke-linecap="round" stroke-linejoin="round"/>
<path d="M105.452 411.988C97.457 411.988 90.9756 405.507 90.9756 397.511C90.9756 389.516 97.457 383.035 105.452 383.035C113.448 383.035 119.929 389.516 119.929 397.511C119.929 405.507 113.448 411.988 105.452 411.988Z" fill="#1B2020" stroke="#1B2020" stroke-width="7" stroke-linecap="round" stroke-linejoin="round"/>
<path d="M402 300.715V295.477C402 291.637 403.525 287.955 406.24 285.24C408.955 282.525 412.637 281 416.477 281H445.43C449.27 281 452.952 282.525 455.667 285.24C458.382 287.955 459.907 291.637 459.907 295.477V300.715" fill="#1B2020"/>
<path d="M402 300.715V295.477C402 291.637 403.525 287.955 406.24 285.24C408.955 282.525 412.637 281 416.477 281H445.43C449.27 281 452.952 282.525 455.667 285.24C458.382 287.955 459.907 291.637 459.907 295.477V300.715L455.667 304.5L444 311L431.5 313L419.5 311L410.5 307.5L402 300.715Z" fill="#1B2020"/>
<path d="M402 300.715V295.477C402 291.637 403.525 287.955 406.24 285.24C408.955 282.525 412.637 281 416.477 281H445.43C449.27 281 452.952 282.525 455.667 285.24C458.382 287.955 459.907 291.637 459.907 295.477V300.715" stroke="#1B2020" stroke-width="7" stroke-linecap="round" stroke-linejoin="round"/>
<path d="M402 300.715V295.477C402 291.637 403.525 287.955 406.24 285.24C408.955 282.525 412.637 281 416.477 281H445.43C449.27 281 452.952 282.525 455.667 285.24C458.382 287.955 459.907 291.637 459.907 295.477V300.715L455.667 304.5L444 311L431.5 313L419.5 311L410.5 307.5L402 300.715Z" stroke="#1B2020" stroke-width="7" stroke-linecap="round" stroke-linejoin="round"/>
<circle r="48.5326" transform="matrix(-1 0 0 1 430.033 265.033)" stroke="#1B2020" stroke-width="7"/>
<path d="M401.498 300.18V294.942C401.498 291.102 403.023 287.42 405.738 284.705C408.453 281.99 412.135 280.465 415.975 280.465H444.928C448.768 280.465 452.45 281.99 455.165 284.705C457.88 287.42 459.405 291.102 459.405 294.942V300.18" stroke="#1B2020" stroke-width="7" stroke-linecap="round" stroke-linejoin="round"/>
<path d="M430.452 265.988C422.457 265.988 415.975 259.507 415.975 251.511C415.975 243.516 422.457 237.035 430.452 237.035C438.447 237.035 444.929 243.516 444.929 251.511C444.929 259.507 438.447 265.988 430.452 265.988Z" fill="#1B2020" stroke="#1B2020" stroke-width="7" stroke-linecap="round" stroke-linejoin="round"/>
<line x1="3.5" y1="-3.5" x2="130.5" y2="-3.5" transform="matrix(-1 0 0 1 231 277)" stroke="#1B2020" stroke-width="7" stroke-linecap="round"/>
<line x1="3.5" y1="-3.5" x2="166.5" y2="-3.5" transform="matrix(-1 0 0 1 401 129)" stroke="#1B2020" stroke-width="7" stroke-linecap="round"/>
</svg>

<svg width="536" height="536" fill="none" xmlns="http://www.w3.org/2000/svg"><path d="M406.274 166.198l2.432-2.517-1.017-.983h-1.415v3.5zm21.033 20.324l2.432-2.517-2.432 2.517zm8.75-20.324v-3.5h-3.5v3.5h3.5zM198.5 97c0-6.904 5.596-12.5 12.5-12.5v-7c-10.77 0-19.5 8.73-19.5 19.5h7zm0 53.198V97h-7v53.198h7zm12.5 12.5c-6.904 0-12.5-5.596-12.5-12.5h-7c0 10.77 8.73 19.5 19.5 19.5v-7zm195.274 0H211v7h195.274v-7zm23.465 21.307l-21.033-20.324-4.864 5.034 21.033 20.324 4.864-5.034zm2.818-1.07c0 1.269-1.662 2.187-2.818 1.07l-4.864 5.034c5.389 5.208 14.682 1.634 14.682-6.104h-7zm0-16.737v16.737h7v-16.737h-7zm31.214-3.5h-27.714v7h27.714v-7zm12.5-12.5c0 6.904-5.597 12.5-12.5 12.5v7c10.769 0 19.5-8.73 19.5-19.5h-7zm0-53.198v53.198h7V97h-7zm-12.5-12.5c6.903 0 12.5 5.597 12.5 12.5h7c0-10.77-8.731-19.5-19.5-19.5v7zM211 84.5h252.771v-7H211v7zm-81.504 230.698l-2.432-2.517 1.018-.983h1.414v3.5zm-21.033 20.324l-2.432-2.517 2.432 2.517zm-8.75-20.324v-3.5h3.5v3.5h-3.5zM337.271 246c0-6.904-5.597-12.5-12.5-12.5v-7c10.769 0 19.5 8.73 19.5 19.5h-7zm0 53.198V246h7v53.198h-7zm-12.501 12.5c6.904 0 12.501-5.596 12.501-12.5h7c0 10.77-8.731 19.5-19.501 19.5v-7zm-195.274 0H324.77v7H129.496v-7zm-23.465 21.307l21.033-20.324 4.864 5.034-21.033 20.324-4.864-5.034zm-2.818-1.07c0 1.27 1.662 2.187 2.818 1.07l4.864 5.034c-5.389 5.208-14.682 1.634-14.682-6.104h7zm0-16.737v16.737h-7v-16.737h7zM72 311.698h27.713v7H72v-7zm-12.5-12.5c0 6.904 5.596 12.5 12.5 12.5v7c-10.77 0-19.5-8.73-19.5-19.5h7zm0-53.198v53.198h-7V246h7zM72 233.5c-6.904 0-12.5 5.596-12.5 12.5h-7c0-10.77 8.73-19.5 19.5-19.5v7zm252.771 0H72v-7H324.77v7z" fill="#1B2020"/><circle r="48.533" transform="matrix(-1 0 0 1 105.033 411.033)" stroke="#1B2020" stroke-width="7"/><path d="M76.499 446.18v-5.238a14.477 14.477 0 0 1 14.476-14.477h28.954a14.478 14.478 0 0 1 14.477 14.477v5.238" stroke="#1B2020" stroke-width="7" stroke-linecap="round" stroke-linejoin="round"/><path d="M76 445.715v-5.238A14.477 14.477 0 0 1 90.478 426h28.954a14.478 14.478 0 0 1 14.477 14.477v5.238" fill="#1B2020"/><path d="M76 445.715v-5.238A14.477 14.477 0 0 1 90.478 426h28.954a14.478 14.478 0 0 1 14.477 14.477v5.238L131 451l-13 5-12.5 2-12-2-9-3.5-8.5-6.785z" fill="#1B2020"/><path d="M76 445.715v-5.238A14.477 14.477 0 0 1 90.478 426h28.954a14.478 14.478 0 0 1 14.477 14.477v5.238" stroke="#1B2020" stroke-width="7" stroke-linecap="round" stroke-linejoin="round"/><path d="M76 445.715v-5.238A14.477 14.477 0 0 1 90.478 426h28.954a14.478 14.478 0 0 1 14.477 14.477v5.238L131 451l-13 5-12.5 2-12-2-9-3.5-8.5-6.785z" stroke="#1B2020" stroke-width="7" stroke-linecap="round" stroke-linejoin="round"/><path d="M105.452 411.988c-7.995 0-14.476-6.481-14.476-14.477 0-7.995 6.481-14.476 14.476-14.476 7.996 0 14.477 6.481 14.477 14.476 0 7.996-6.481 14.477-14.477 14.477z" fill="#1B2020" stroke="#1B2020" stroke-width="7" stroke-linecap="round" stroke-linejoin="round"/><path d="M402 300.715v-5.238A14.476 14.476 0 0 1 416.477 281h28.953a14.476 14.476 0 0 1 14.477 14.477v5.238" fill="#1B2020"/><path d="M402 300.715v-5.238A14.476 14.476 0 0 1 416.477 281h28.953a14.476 14.476 0 0 1 14.477 14.477v5.238l-4.24 3.785L444 311l-12.5 2-12-2-9-3.5-8.5-6.785z" fill="#1B2020"/><path d="M402 300.715v-5.238A14.476 14.476 0 0 1 416.477 281h28.953a14.476 14.476 0 0 1 14.477 14.477v5.238" stroke="#1B2020" stroke-width="7" stroke-linecap="round" stroke-linejoin="round"/><path d="M402 300.715v-5.238A14.476 14.476 0 0 1 416.477 281h28.953a14.476 14.476 0 0 1 14.477 14.477v5.238l-4.24 3.785L444 311l-12.5 2-12-2-9-3.5-8.5-6.785z" stroke="#1B2020" stroke-width="7" stroke-linecap="round" stroke-linejoin="round"/><circle r="48.533" transform="matrix(-1 0 0 1 430.033 265.033)" stroke="#1B2020" stroke-width="7"/><path d="M401.498 300.18v-5.238a14.476 14.476 0 0 1 14.477-14.477h28.953a14.476 14.476 0 0 1 14.477 14.477v5.238" stroke="#1B2020" stroke-width="7" stroke-linecap="round" stroke-linejoin="round"/><path d="M430.452 265.988c-7.995 0-14.477-6.481-14.477-14.477 0-7.995 6.482-14.476 14.477-14.476s14.477 6.481 14.477 14.476c0 7.996-6.482 14.477-14.477 14.477z" fill="#1B2020" stroke="#1B2020" stroke-width="7" stroke-linecap="round" stroke-linejoin="round"/><path transform="matrix(-1 0 0 1 231 277)" stroke="#1B2020" stroke-width="7" stroke-linecap="round" d="M3.5 -3.5L130.5 -3.5"/><path transform="matrix(-1 0 0 1 401 129)" stroke="#1B2020" stroke-width="7" stroke-linecap="round" d="M3.5 -3.5L166.5 -3.5"/></svg>
